Papirus/64x64/apps/org.gnome.DiskUtility.svg

<svg width="64" height="64" version="1.1" xmlns="http://www.w3.org/2000/svg">
 <rect x="10" y="5" width="42" height="56" rx="4.2" ry="4.554" style="opacity:.2"/>
 <rect x="10" y="4" width="42" height="56" rx="4.2" ry="4.554" style="fill:#e4e4e4"/>
 <path d="m19.386719 6c-1.169555 0-2.109375 0.9676356-2.109375 2.1679688 0 1.7949262-1.415154 3.2500002-3.164063 3.2500002-1.169551 0-2.113281 0.963729-2.113281 2.164062v4.335938c0 1.200334 0.943727 2.164063 2.113281 2.164063 1.748909 0 3.164063 1.455072 3.164063 3.25-0.0018 0.800124-0.28744 1.572886-0.808594 2.167968-3.125589 3.571008-4.461265 8.199758-4.46875 13 0 0.06444 0.0071 0.1088 0.0078 0.17188a18.999999 18.777778 0 0 0-0.0078 0.550776 18.999999 18.777778 0 0 0 19 18.777344 18.999999 18.777778 0 0 0 19-18.777344 18.999999 18.777778 0 0 0-0.007812-0.574218c4.54e-4 -0.05496 0.007812-0.092438 0.007812-0.148438-0.0084-4.800694-1.341942-9.429502-4.46875-13-0.520964-0.595158-0.80732-1.367914-0.808594-2.167968 0-1.794928 1.415156-3.25 3.164062-3.25 1.169552 0 2.113282-0.963728 2.113282-2.164063v-4.335938c0-1.200333-0.94373-2.164062-2.113282-2.164062-1.748906 0-3.164062-1.455074-3.164062-3.2500002 0-1.2003332-0.939818-2.1679688-2.109374-2.1679688zm-4.886719 1a1.5000004 1.5 0 0 0-1.5 1.5 1.5000004 1.5 0 0 0 1.5 1.5 1.5000004 1.5 0 0 0 1.5-1.5 1.5000004 1.5 0 0 0-1.5-1.5zm33 0a1.5000004 1.5 0 0 0-1.5 1.5 1.5000004 1.5 0 0 0 1.5 1.5 1.5000004 1.5 0 0 0 1.5-1.5 1.5000004 1.5 0 0 0-1.5-1.5zm-33 15a1.5000004 1.5 0 0 0-1.5 1.5 1.5000004 1.5 0 0 0 1.5 1.5 1.5000004 1.5 0 0 0 1.5-1.5 1.5000004 1.5 0 0 0-1.5-1.5zm33 0a1.5000004 1.5 0 0 0-1.5 1.5 1.5000004 1.5 0 0 0 1.5 1.5 1.5000004 1.5 0 0 0 1.5-1.5 1.5000004 1.5 0 0 0-1.5-1.5zm-33 32a1.5000004 1.5 0 0 0-1.5 1.5 1.5000004 1.5 0 0 0 1.5 1.5 1.5000004 1.5 0 0 0 1.5-1.5 1.5000004 1.5 0 0 0-1.5-1.5zm33 0a1.5000004 1.5 0 0 0-1.5 1.5 1.5000004 1.5 0 0 0 1.5 1.5 1.5000004 1.5 0 0 0 1.5-1.5 1.5000004 1.5 0 0 0-1.5-1.5z" style="fill:#ababab"/>
 <path d="m30.572878 22.999998c-1.21998 0-2.402446 0.280482-3.49282 0.660312l5.758446 5.753686c1.183362 1.18236 1.183362 3.062082 0 4.244508l-2.171218 2.169418c-1.18337 1.182362-3.064668 1.182362-4.248038 0l-5.75844-5.753678c-0.38017 1.089426-0.660808 2.270934-0.660808 3.489918 0 5.834414 4.733642 10.564104 10.572878 10.564104 1.219988 0 2.402454-0.280486 3.492834-0.660248l15.68442 15.704698c5.041486 5.051178 11.360732-1.463176 6.513632-6.31959l-15.778812-15.79904c0.380164-1.089428 0.660798-2.270936 0.660798-3.489918 0-5.834414-4.733636-10.56417-10.572882-10.56417z" style="opacity:.2"/>
 <path d="m30.572878 21.999998c-1.21998 0-2.402446 0.280482-3.49282 0.660312l5.758446 5.753686c1.183362 1.18236 1.183362 3.062082 0 4.244508l-2.171218 2.169418c-1.18337 1.182362-3.064668 1.182362-4.248038 0l-5.75844-5.753678c-0.38017 1.089426-0.660808 2.270934-0.660808 3.489918 0 5.834414 4.733642 10.564104 10.572878 10.564104 1.219988 0 2.402454-0.280486 3.492834-0.660248l15.68442 15.704698c5.041486 5.051178 11.360732-1.463176 6.513632-6.31959l-15.778812-15.79904c0.380164-1.089428 0.660798-2.270936 0.660798-3.489918 0-5.834414-4.733636-10.56417-10.572882-10.56417z" style="fill:#4f4f4f"/>
 <path d="M 14.199219 4 C 11.872419 4 10 6.0318565 10 8.5546875 L 10 9.5546875 C 10 7.0318565 11.872419 5 14.199219 5 L 47.800781 5 C 50.127581 5 52 7.0318565 52 9.5546875 L 52 8.5546875 C 52 6.0318565 50.127581 4 47.800781 4 L 14.199219 4 z" style="fill:#ffffff;opacity:.2"/>
 <path d="m19.386719 6c-1.169555 0-2.109375 0.9676355-2.109375 2.1679688 0 1.7949261-1.415154 3.2500002-3.164063 3.2500002-1.169551 0-2.113281 0.963729-2.113281 2.164062v1c0-1.200333 0.94373-2.164062 2.113281-2.164062 1.748909 0 3.164063-1.455074 3.164063-3.2500002 0-1.2003333 0.93982-2.1679688 2.109375-2.1679688h23.226562c1.169556 0 2.109375 0.9676355 2.109375 2.1679688 0 1.7949262 1.415157 3.2500002 3.164063 3.2500002 1.169552 0 2.113281 0.963729 2.113281 2.164062v-1c0-1.200333-0.943729-2.164062-2.113281-2.164062-1.748906 0-3.164063-1.455074-3.164063-3.2500002 0-1.2003333-0.939819-2.1679688-2.109375-2.1679688h-23.226562zm-4.886719 1a1.5000004 1.5 0 0 0-1.5 1.5 1.5000004 1.5 0 0 0 0.085938 0.5019531 1.5000004 1.5 0 0 1 1.414062-1.0019531 1.5000004 1.5 0 0 1 1.414062 0.9980469 1.5000004 1.5 0 0 0 0.085938-0.4980469 1.5000004 1.5 0 0 0-1.5-1.5zm33 0a1.5000004 1.5 0 0 0-1.5 1.5 1.5000004 1.5 0 0 0 0.085938 0.5019531 1.5000004 1.5 0 0 1 1.414062-1.0019531 1.5000004 1.5 0 0 1 1.414062 0.9980469 1.5000004 1.5 0 0 0 0.085938-0.4980469 1.5000004 1.5 0 0 0-1.5-1.5zm-33 15a1.5000004 1.5 0 0 0-1.5 1.5 1.5000004 1.5 0 0 0 0.085938 0.501953 1.5000004 1.5 0 0 1 1.414062-1.001953 1.5000004 1.5 0 0 1 1.414062 0.998047 1.5000004 1.5 0 0 0 0.085938-0.498047 1.5000004 1.5 0 0 0-1.5-1.5zm33 0a1.5000004 1.5 0 0 0-1.5 1.5 1.5000004 1.5 0 0 0 0.085938 0.501953 1.5000004 1.5 0 0 1 1.414062-1.001953 1.5000004 1.5 0 0 1 1.414062 0.998047 1.5000004 1.5 0 0 0 0.085938-0.498047 1.5000004 1.5 0 0 0-1.5-1.5zm-30.269531 1.847656c-0.096324 0.610964-0.354068 1.186866-0.761719 1.652344-3.125589 3.571008-4.461265 8.199758-4.46875 13 0 0.06444 0.007113 0.108795 0.007812 0.171875a18.999999 18.777778 0 0 0-0.007812 0.550781 18.999999 18.777778 0 0 0 0.001953 0.214844c0.018995-4.777802 1.354839-9.382066 4.466797-12.9375 0.521154-0.595082 0.806794-1.367845 0.808594-2.167969 0-0.166069-0.023504-0.325007-0.046875-0.484375zm27.539062 0.009766c-0.022464 0.156333-0.046875 0.311856-0.046875 0.474609 0.001274 0.800054 0.28763 1.572811 0.808594 2.167969 3.112746 3.554441 4.44656 8.158 4.466797 12.935547a18.999999 18.777778 0 0 0 0.001953-0.212891 18.999999 18.777778 0 0 0-0.007812-0.574218c4.53e-4 -0.054961 0.007812-0.092438 0.007812-0.148438-0.0084-4.800694-1.341942-9.429502-4.46875-13-0.405336-0.463063-0.664202-1.035284-0.761719-1.642578zm-32.765625 15.728516a18.999999 18.777778 0 0 0 0.003906 0.11914 18.999999 18.777778 0 0 1 0-0.033203c-3.49e-4 -0.03154-0.002043-0.058907-0.003906-0.085937zm37.990235 0.007812c-0.001327 0.017289-0.001786 0.034457-0.001953 0.054688a18.999999 18.777778 0 0 1 0 0.035156 18.999999 18.777778 0 0 0 0.001953-0.089844zm-35.494141 14.40625a1.5000004 1.5 0 0 0-1.5 1.5 1.5000004 1.5 0 0 0 0.085938 0.501953 1.5000004 1.5 0 0 1 1.414062-1.001953 1.5000004 1.5 0 0 1 1.414062 0.998047 1.5000004 1.5 0 0 0 0.085938-0.498047 1.5000004 1.5 0 0 0-1.5-1.5zm33 0a1.5000004 1.5 0 0 0-1.5 1.5 1.5000004 1.5 0 0 0 0.085938 0.501953 1.5000004 1.5 0 0 1 1.414062-1.001953 1.5000004 1.5 0 0 1 1.414062 0.998047 1.5000004 1.5 0 0 0 0.085938-0.498047 1.5000004 1.5 0 0 0-1.5-1.5z" style="opacity:.2"/>
</svg>

<svg xmlns="http://www.w3.org/2000/svg" width="64" height="64" version="1.1">
 <rect style="opacity:0.2" width="42" height="56" x="10" y="5" rx="4.2" ry="4.554"/>
 <rect style="fill:#e4e4e4" width="42" height="56" x="10" y="4" rx="4.2" ry="4.554"/>
 <path style="fill:#ababab" d="m 19.386719,6 c -1.169555,0 -2.109375,0.9676356 -2.109375,2.1679688 0,1.7949262 -1.415154,3.2500002 -3.164063,3.2500002 C 12.94373,11.417969 12,12.381698 12,13.582031 v 4.335938 c 0,1.200334 0.943727,2.164063 2.113281,2.164063 1.748909,0 3.164063,1.455072 3.164063,3.25 -0.0018,0.800124 -0.28744,1.572886 -0.808594,2.167968 -3.125589,3.571008 -4.461265,8.199758 -4.46875,13 0,0.06444 0.0071,0.1088 0.0078,0.17188 A 18.999999,18.777778 0 0 0 12,39.222656 18.999999,18.777778 0 0 0 31,58 18.999999,18.777778 0 0 0 50,39.222656 18.999999,18.777778 0 0 0 49.992188,38.648438 C 49.992642,38.593478 50,38.556 50,38.5 c -0.0084,-4.800694 -1.341942,-9.429502 -4.46875,-13 -0.520964,-0.595158 -0.80732,-1.367914 -0.808594,-2.167968 0,-1.794928 1.415156,-3.25 3.164062,-3.25 C 49.05627,20.082032 50,19.118304 50,17.917969 v -4.335938 c 0,-1.200333 -0.94373,-2.164062 -2.113282,-2.164062 -1.748906,0 -3.164062,-1.455074 -3.164062,-3.2500002 C 44.722656,6.9676356 43.782838,6 42.613282,6 Z M 14.5,7 A 1.5000004,1.5 0 0 0 13,8.5 1.5000004,1.5 0 0 0 14.5,10 1.5000004,1.5 0 0 0 16,8.5 1.5000004,1.5 0 0 0 14.5,7 Z m 33,0 A 1.5000004,1.5 0 0 0 46,8.5 1.5000004,1.5 0 0 0 47.5,10 1.5000004,1.5 0 0 0 49,8.5 1.5000004,1.5 0 0 0 47.5,7 Z m -33,15 A 1.5000004,1.5 0 0 0 13,23.5 1.5000004,1.5 0 0 0 14.5,25 1.5000004,1.5 0 0 0 16,23.5 1.5000004,1.5 0 0 0 14.5,22 Z m 33,0 A 1.5000004,1.5 0 0 0 46,23.5 1.5000004,1.5 0 0 0 47.5,25 1.5000004,1.5 0 0 0 49,23.5 1.5000004,1.5 0 0 0 47.5,22 Z m -33,32 A 1.5000004,1.5 0 0 0 13,55.5 1.5000004,1.5 0 0 0 14.5,57 1.5000004,1.5 0 0 0 16,55.5 1.5000004,1.5 0 0 0 14.5,54 Z m 33,0 A 1.5000004,1.5 0 0 0 46,55.5 1.5000004,1.5 0 0 0 47.5,57 1.5000004,1.5 0 0 0 49,55.5 1.5000004,1.5 0 0 0 47.5,54 Z"/>
 <path style="opacity:0.1" d="m 30.572878,22.999998 c -1.21998,0 -2.402446,0.280482 -3.49282,0.660312 l 5.758446,5.753686 c 1.183362,1.18236 1.183362,3.062082 0,4.244508 l -2.171218,2.169418 c -1.18337,1.182362 -3.064668,1.182362 -4.248038,0 l -5.75844,-5.753678 C 20.280638,31.16367 20,32.345178 20,33.564162 c 0,5.834414 4.733642,10.564104 10.572878,10.564104 1.219988,0 2.402454,-0.280486 3.492834,-0.660248 l 15.68442,15.704698 c 5.041486,5.051178 11.360732,-1.463176 6.513632,-6.31959 L 40.484952,37.054086 c 0.380164,-1.089428 0.660798,-2.270936 0.660798,-3.489918 0,-5.834414 -4.733636,-10.56417 -10.572882,-10.56417 z"/>
 <path style="fill:#4f4f4f" d="m 30.572878,21.999998 c -1.21998,0 -2.402446,0.280482 -3.49282,0.660312 l 5.758446,5.753686 c 1.183362,1.18236 1.183362,3.062082 0,4.244508 l -2.171218,2.169418 c -1.18337,1.182362 -3.064668,1.182362 -4.248038,0 l -5.75844,-5.753678 C 20.280638,30.16367 20,31.345178 20,32.564162 c 0,5.834414 4.733642,10.564104 10.572878,10.564104 1.219988,0 2.402454,-0.280486 3.492834,-0.660248 l 15.68442,15.704698 c 5.041486,5.051178 11.360732,-1.463176 6.513632,-6.31959 L 40.484952,36.054086 c 0.380164,-1.089428 0.660798,-2.270936 0.660798,-3.489918 0,-5.834414 -4.733636,-10.56417 -10.572882,-10.56417 z"/>
 <path style="opacity:0.2;fill:#ffffff" d="M 14.199219 4 C 11.872419 4 10 6.0318565 10 8.5546875 L 10 9.5546875 C 10 7.0318565 11.872419 5 14.199219 5 L 47.800781 5 C 50.127581 5 52 7.0318565 52 9.5546875 L 52 8.5546875 C 52 6.0318565 50.127581 4 47.800781 4 L 14.199219 4 z"/>
 <path style="opacity:0.1" d="M 19.386719 6 C 18.217164 6 17.277344 6.9676355 17.277344 8.1679688 C 17.277344 9.9628949 15.86219 11.417969 14.113281 11.417969 C 12.94373 11.417969 12 12.381698 12 13.582031 L 12 14.582031 C 12 13.381698 12.94373 12.417969 14.113281 12.417969 C 15.86219 12.417969 17.277344 10.962895 17.277344 9.1679688 C 17.277344 7.9676355 18.217164 7 19.386719 7 L 42.613281 7 C 43.782837 7 44.722656 7.9676355 44.722656 9.1679688 C 44.722656 10.962895 46.137813 12.417969 47.886719 12.417969 C 49.056271 12.417969 50 13.381698 50 14.582031 L 50 13.582031 C 50 12.381698 49.056271 11.417969 47.886719 11.417969 C 46.137813 11.417969 44.722656 9.962895 44.722656 8.1679688 C 44.722656 6.9676355 43.782837 6 42.613281 6 L 19.386719 6 z M 14.5 7 A 1.5000004 1.5 0 0 0 13 8.5 A 1.5000004 1.5 0 0 0 13.085938 9.0019531 A 1.5000004 1.5 0 0 1 14.5 8 A 1.5000004 1.5 0 0 1 15.914062 8.9980469 A 1.5000004 1.5 0 0 0 16 8.5 A 1.5000004 1.5 0 0 0 14.5 7 z M 47.5 7 A 1.5000004 1.5 0 0 0 46 8.5 A 1.5000004 1.5 0 0 0 46.085938 9.0019531 A 1.5000004 1.5 0 0 1 47.5 8 A 1.5000004 1.5 0 0 1 48.914062 8.9980469 A 1.5000004 1.5 0 0 0 49 8.5 A 1.5000004 1.5 0 0 0 47.5 7 z M 14.5 22 A 1.5000004 1.5 0 0 0 13 23.5 A 1.5000004 1.5 0 0 0 13.085938 24.001953 A 1.5000004 1.5 0 0 1 14.5 23 A 1.5000004 1.5 0 0 1 15.914062 23.998047 A 1.5000004 1.5 0 0 0 16 23.5 A 1.5000004 1.5 0 0 0 14.5 22 z M 47.5 22 A 1.5000004 1.5 0 0 0 46 23.5 A 1.5000004 1.5 0 0 0 46.085938 24.001953 A 1.5000004 1.5 0 0 1 47.5 23 A 1.5000004 1.5 0 0 1 48.914062 23.998047 A 1.5000004 1.5 0 0 0 49 23.5 A 1.5000004 1.5 0 0 0 47.5 22 z M 17.230469 23.847656 C 17.134145 24.45862 16.876401 25.034522 16.46875 25.5 C 13.343161 29.071008 12.007485 33.699758 12 38.5 C 12 38.56444 12.007113 38.608795 12.007812 38.671875 A 18.999999 18.777778 0 0 0 12 39.222656 A 18.999999 18.777778 0 0 0 12.001953 39.4375 C 12.020948 34.659698 13.356792 30.055434 16.46875 26.5 C 16.989904 25.904918 17.275544 25.132155 17.277344 24.332031 C 17.277344 24.165962 17.25384 24.007024 17.230469 23.847656 z M 44.769531 23.857422 C 44.747067 24.013755 44.722656 24.169278 44.722656 24.332031 C 44.72393 25.132085 45.010286 25.904842 45.53125 26.5 C 48.643996 30.054441 49.97781 34.658 49.998047 39.435547 A 18.999999 18.777778 0 0 0 50 39.222656 A 18.999999 18.777778 0 0 0 49.992188 38.648438 C 49.992641 38.593477 50 38.556 50 38.5 C 49.9916 33.699306 48.658058 29.070498 45.53125 25.5 C 45.125914 25.036937 44.867048 24.464716 44.769531 23.857422 z M 12.003906 39.585938 A 18.999999 18.777778 0 0 0 12.007812 39.705078 A 18.999999 18.777778 0 0 1 12.007812 39.671875 C 12.007463 39.640335 12.005769 39.612968 12.003906 39.585938 z M 49.994141 39.59375 C 49.992814 39.611039 49.992355 39.628207 49.992188 39.648438 A 18.999999 18.777778 0 0 1 49.992188 39.683594 A 18.999999 18.777778 0 0 0 49.994141 39.59375 z M 14.5 54 A 1.5000004 1.5 0 0 0 13 55.5 A 1.5000004 1.5 0 0 0 13.085938 56.001953 A 1.5000004 1.5 0 0 1 14.5 55 A 1.5000004 1.5 0 0 1 15.914062 55.998047 A 1.5000004 1.5 0 0 0 16 55.5 A 1.5000004 1.5 0 0 0 14.5 54 z M 47.5 54 A 1.5000004 1.5 0 0 0 46 55.5 A 1.5000004 1.5 0 0 0 46.085938 56.001953 A 1.5000004 1.5 0 0 1 47.5 55 A 1.5000004 1.5 0 0 1 48.914062 55.998047 A 1.5000004 1.5 0 0 0 49 55.5 A 1.5000004 1.5 0 0 0 47.5 54 z"/>
</svg>
